images/50206926.svg

<?xml version="1.0" encoding="UTF-8"?>
<svg xmlns="http://www.w3.org/2000/svg" xmlns:xlink="http://www.w3.org/1999/xlink" width="300pt" height="300pt" viewBox="0 0 300 300" version="1.1">
<defs>
<g>
<symbol overflow="visible" id="glyph0-0">
<path style="stroke:none;" d="M 0.453125 1.59375 L 0.453125 -6.34375 L 4.953125 -6.34375 L 4.953125 1.59375 Z M 0.953125 1.09375 L 4.453125 1.09375 L 4.453125 -5.84375 L 0.953125 -5.84375 Z M 0.953125 1.09375 "/>
</symbol>
<symbol overflow="visible" id="glyph0-1">
<path style="stroke:none;" d="M 3.546875 -5.953125 C 2.898438 -5.953125 2.382812 -5.710938 2 -5.234375 C 1.625 -4.753906 1.4375 -4.101562 1.4375 -3.28125 C 1.4375 -2.445312 1.625 -1.789062 2 -1.3125 C 2.382812 -0.832031 2.898438 -0.59375 3.546875 -0.59375 C 4.191406 -0.59375 4.703125 -0.832031 5.078125 -1.3125 C 5.453125 -1.789062 5.640625 -2.445312 5.640625 -3.28125 C 5.640625 -4.101562 5.453125 -4.753906 5.078125 -5.234375 C 4.703125 -5.710938 4.191406 -5.953125 3.546875 -5.953125 Z M 3.546875 -6.6875 C 4.460938 -6.6875 5.195312 -6.375 5.75 -5.75 C 6.300781 -5.132812 6.578125 -4.3125 6.578125 -3.28125 C 6.578125 -2.238281 6.300781 -1.410156 5.75 -0.796875 C 5.195312 -0.179688 4.460938 0.125 3.546875 0.125 C 2.617188 0.125 1.878906 -0.179688 1.328125 -0.796875 C 0.773438 -1.410156 0.5 -2.238281 0.5 -3.28125 C 0.5 -4.3125 0.773438 -5.132812 1.328125 -5.75 C 1.878906 -6.375 2.617188 -6.6875 3.546875 -6.6875 Z M 3.546875 -6.6875 "/>
</symbol>
<symbol overflow="visible" id="glyph0-2">
<path style="stroke:none;" d="M 0.890625 -6.5625 L 2.078125 -6.5625 L 4.984375 -1.078125 L 4.984375 -6.5625 L 5.84375 -6.5625 L 5.84375 0 L 4.65625 0 L 1.75 -5.484375 L 1.75 0 L 0.890625 0 Z M 0.890625 -6.5625 "/>
</symbol>
<symbol overflow="visible" id="glyph0-3">
<path style="stroke:none;" d="M 0.890625 -6.5625 L 1.765625 -6.5625 L 1.765625 -3.875 L 5 -3.875 L 5 -6.5625 L 5.890625 -6.5625 L 5.890625 0 L 5 0 L 5 -3.125 L 1.765625 -3.125 L 1.765625 0 L 0.890625 0 Z M 0.890625 -6.5625 "/>
</symbol>
</g>
</defs>
<g id="surface23189">
<rect x="0" y="0" width="300" height="300" style="fill:rgb(100%,100%,100%);fill-opacity:1;stroke:none;"/>
<path style="fill:none;stroke-width:1.2;stroke-linecap:butt;stroke-linejoin:miter;stroke:rgb(100%,0%,0%);stroke-opacity:1;stroke-miterlimit:10;" d="M 180.105469 191.558594 L 184.789062 183.359375 "/>
<path style="fill:none;stroke-width:1.2;stroke-linecap:butt;stroke-linejoin:miter;stroke:rgb(0%,0%,0%);stroke-opacity:1;stroke-miterlimit:10;" d="M 184.789062 183.359375 L 189.476562 175.15625 "/>
<path style="fill:none;stroke-width:1.2;stroke-linecap:butt;stroke-linejoin:miter;stroke:rgb(100%,0%,0%);stroke-opacity:1;stroke-miterlimit:10;" d="M 180.105469 191.558594 L 170.660156 191.597656 "/>
<path style="fill:none;stroke-width:1.2;stroke-linecap:butt;stroke-linejoin:miter;stroke:rgb(0%,0%,0%);stroke-opacity:1;stroke-miterlimit:10;" d="M 170.660156 191.597656 L 161.214844 191.640625 "/>
<path style=" stroke:none;fill-rule:nonzero;fill:rgb(100%,100%,100%);fill-opacity:1;" d="M 176.105469 186.058594 L 184.105469 186.058594 L 184.105469 197.058594 L 176.105469 197.058594 Z M 176.105469 186.058594 "/>
<g style="fill:rgb(100%,0%,0%);fill-opacity:1;">
  <use xlink:href="#glyph0-1" x="176.105469" y="194.72168"/>
</g>
<path style="fill:none;stroke-width:1.2;stroke-linecap:butt;stroke-linejoin:miter;stroke:rgb(0%,0%,0%);stroke-opacity:1;stroke-miterlimit:10;" d="M 189.476562 175.15625 L 208.367188 175.074219 "/>
<path style="fill:none;stroke-width:1.2;stroke-linecap:butt;stroke-linejoin:miter;stroke:rgb(0%,0%,0%);stroke-opacity:1;stroke-miterlimit:10;" d="M 191.347656 170.703125 L 206.457031 170.640625 "/>
<path style="fill:none;stroke-width:1.2;stroke-linecap:butt;stroke-linejoin:miter;stroke:rgb(0%,0%,0%);stroke-opacity:1;stroke-miterlimit:10;" d="M 179.960938 158.839844 L 189.476562 175.15625 "/>
<path style="fill:none;stroke-width:1.2;stroke-linecap:butt;stroke-linejoin:miter;stroke:rgb(0%,0%,0%);stroke-opacity:1;stroke-miterlimit:10;" d="M 208.367188 175.074219 L 217.742188 158.675781 "/>
<path style="fill:none;stroke-width:1.2;stroke-linecap:butt;stroke-linejoin:miter;stroke:rgb(0%,0%,0%);stroke-opacity:1;stroke-miterlimit:10;" d="M 217.742188 158.675781 L 208.222656 142.355469 "/>
<path style="fill:none;stroke-width:1.2;stroke-linecap:butt;stroke-linejoin:miter;stroke:rgb(0%,0%,0%);stroke-opacity:1;stroke-miterlimit:10;" d="M 212.949219 159.28125 L 205.335938 146.226562 "/>
<path style="fill:none;stroke-width:1.2;stroke-linecap:butt;stroke-linejoin:miter;stroke:rgb(0%,0%,0%);stroke-opacity:1;stroke-miterlimit:10;" d="M 208.222656 142.355469 L 212.910156 134.15625 "/>
<path style="fill:none;stroke-width:1.2;stroke-linecap:butt;stroke-linejoin:miter;stroke:rgb(0%,0%,100%);stroke-opacity:1;stroke-miterlimit:10;" d="M 212.910156 134.15625 L 217.597656 125.957031 "/>
<path style="fill:none;stroke-width:1.2;stroke-linecap:butt;stroke-linejoin:miter;stroke:rgb(0%,0%,0%);stroke-opacity:1;stroke-miterlimit:10;" d="M 208.222656 142.355469 L 189.335938 142.441406 "/>
<path style="fill:none;stroke-width:1.2;stroke-linecap:butt;stroke-linejoin:miter;stroke:rgb(0%,0%,100%);stroke-opacity:1;stroke-miterlimit:10;" d="M 217.597656 125.957031 L 227.042969 125.914062 "/>
<path style="fill:none;stroke-width:1.2;stroke-linecap:butt;stroke-linejoin:miter;stroke:rgb(0%,0%,0%);stroke-opacity:1;stroke-miterlimit:10;" d="M 227.042969 125.914062 L 236.488281 125.875 "/>
<path style=" stroke:none;fill-rule:nonzero;fill:rgb(100%,100%,100%);fill-opacity:1;" d="M 210.597656 120.457031 L 224.597656 120.457031 L 224.597656 131.457031 L 210.597656 131.457031 Z M 210.597656 120.457031 "/>
<g style="fill:rgb(0%,0%,100%);fill-opacity:1;">
  <use xlink:href="#glyph0-2" x="210.597656" y="129.120117"/>
  <use xlink:href="#glyph0-3" x="217.575195" y="129.120117"/>
</g>
<path style="fill:none;stroke-width:1.2;stroke-linecap:butt;stroke-linejoin:miter;stroke:rgb(0%,0%,0%);stroke-opacity:1;stroke-miterlimit:10;" d="M 234.566406 126.992188 L 239.324219 135.152344 "/>
<path style="fill:none;stroke-width:1.2;stroke-linecap:butt;stroke-linejoin:miter;stroke:rgb(100%,0%,0%);stroke-opacity:1;stroke-miterlimit:10;" d="M 239.324219 135.152344 L 244.082031 143.3125 "/>
<path style="fill:none;stroke-width:1.2;stroke-linecap:butt;stroke-linejoin:miter;stroke:rgb(0%,0%,0%);stroke-opacity:1;stroke-miterlimit:10;" d="M 238.40625 124.753906 L 243.164062 132.914062 "/>
<path style="fill:none;stroke-width:1.2;stroke-linecap:butt;stroke-linejoin:miter;stroke:rgb(100%,0%,0%);stroke-opacity:1;stroke-miterlimit:10;" d="M 243.164062 132.914062 L 247.921875 141.074219 "/>
<path style="fill:none;stroke-width:1.2;stroke-linecap:butt;stroke-linejoin:miter;stroke:rgb(0%,0%,0%);stroke-opacity:1;stroke-miterlimit:10;" d="M 236.488281 125.875 L 245.859375 109.472656 "/>
<path style=" stroke:none;fill-rule:nonzero;fill:rgb(100%,100%,100%);fill-opacity:1;" d="M 242.003906 136.691406 L 250.003906 136.691406 L 250.003906 147.691406 L 242.003906 147.691406 Z M 242.003906 136.691406 "/>
<g style="fill:rgb(100%,0%,0%);fill-opacity:1;">
  <use xlink:href="#glyph0-1" x="242.003906" y="145.354492"/>
</g>
<path style="fill:none;stroke-width:1.2;stroke-linecap:butt;stroke-linejoin:miter;stroke:rgb(0%,0%,0%);stroke-opacity:1;stroke-miterlimit:10;" d="M 245.859375 109.472656 L 264.75 109.390625 "/>
<path style="fill:none;stroke-width:1.2;stroke-linecap:butt;stroke-linejoin:miter;stroke:rgb(0%,0%,0%);stroke-opacity:1;stroke-miterlimit:10;" d="M 189.335938 142.441406 L 179.960938 158.839844 "/>
<path style="fill:none;stroke-width:1.2;stroke-linecap:butt;stroke-linejoin:miter;stroke:rgb(0%,0%,0%);stroke-opacity:1;stroke-miterlimit:10;" d="M 192.257812 146.285156 L 184.757812 159.40625 "/>
<path style="fill:none;stroke-width:1.2;stroke-linecap:butt;stroke-linejoin:miter;stroke:rgb(0%,0%,0%);stroke-opacity:1;stroke-miterlimit:10;" d="M 161.214844 191.640625 L 151.699219 175.324219 "/>
<path style="fill:none;stroke-width:1.2;stroke-linecap:butt;stroke-linejoin:miter;stroke:rgb(0%,0%,0%);stroke-opacity:1;stroke-miterlimit:10;" d="M 156.421875 192.246094 L 148.808594 179.195312 "/>
<path style="fill:none;stroke-width:1.2;stroke-linecap:butt;stroke-linejoin:miter;stroke:rgb(0%,0%,0%);stroke-opacity:1;stroke-miterlimit:10;" d="M 151.839844 208.039062 L 161.214844 191.640625 "/>
<path style="fill:none;stroke-width:1.2;stroke-linecap:butt;stroke-linejoin:miter;stroke:rgb(0%,0%,0%);stroke-opacity:1;stroke-miterlimit:10;" d="M 151.699219 175.324219 L 132.808594 175.40625 "/>
<path style="fill:none;stroke-width:1.2;stroke-linecap:butt;stroke-linejoin:miter;stroke:rgb(0%,0%,0%);stroke-opacity:1;stroke-miterlimit:10;" d="M 132.808594 175.40625 L 123.433594 191.804688 "/>
<path style="fill:none;stroke-width:1.2;stroke-linecap:butt;stroke-linejoin:miter;stroke:rgb(0%,0%,0%);stroke-opacity:1;stroke-miterlimit:10;" d="M 135.730469 179.25 L 128.230469 192.371094 "/>
<path style="fill:none;stroke-width:1.2;stroke-linecap:butt;stroke-linejoin:miter;stroke:rgb(0%,0%,0%);stroke-opacity:1;stroke-miterlimit:10;" d="M 123.433594 191.804688 L 113.988281 191.847656 "/>
<path style="fill:none;stroke-width:1.2;stroke-linecap:butt;stroke-linejoin:miter;stroke:rgb(0%,0%,100%);stroke-opacity:1;stroke-miterlimit:10;" d="M 113.988281 191.847656 L 104.546875 191.886719 "/>
<path style="fill:none;stroke-width:1.2;stroke-linecap:butt;stroke-linejoin:miter;stroke:rgb(0%,0%,0%);stroke-opacity:1;stroke-miterlimit:10;" d="M 123.433594 191.804688 L 132.953125 208.121094 "/>
<path style="fill:none;stroke-width:1.2;stroke-linecap:butt;stroke-linejoin:miter;stroke:rgb(0%,0%,100%);stroke-opacity:1;stroke-miterlimit:10;" d="M 104.546875 191.886719 L 99.789062 183.730469 "/>
<path style="fill:none;stroke-width:1.2;stroke-linecap:butt;stroke-linejoin:miter;stroke:rgb(0%,0%,0%);stroke-opacity:1;stroke-miterlimit:10;" d="M 99.789062 183.730469 L 95.027344 175.570312 "/>
<path style=" stroke:none;fill-rule:nonzero;fill:rgb(100%,100%,100%);fill-opacity:1;" d="M 97.546875 186.386719 L 111.546875 186.386719 L 111.546875 197.386719 L 97.546875 197.386719 Z M 97.546875 186.386719 "/>
<g style="fill:rgb(0%,0%,100%);fill-opacity:1;">
  <use xlink:href="#glyph0-2" x="97.546875" y="195.049805"/>
  <use xlink:href="#glyph0-3" x="104.524414" y="195.049805"/>
</g>
<path style="fill:none;stroke-width:1.2;stroke-linecap:butt;stroke-linejoin:miter;stroke:rgb(0%,0%,0%);stroke-opacity:1;stroke-miterlimit:10;" d="M 96.957031 176.671875 L 101.644531 168.472656 "/>
<path style="fill:none;stroke-width:1.2;stroke-linecap:butt;stroke-linejoin:miter;stroke:rgb(100%,0%,0%);stroke-opacity:1;stroke-miterlimit:10;" d="M 101.644531 168.472656 L 106.332031 160.273438 "/>
<path style="fill:none;stroke-width:1.2;stroke-linecap:butt;stroke-linejoin:miter;stroke:rgb(0%,0%,0%);stroke-opacity:1;stroke-miterlimit:10;" d="M 93.101562 174.46875 L 97.785156 166.265625 "/>
<path style="fill:none;stroke-width:1.2;stroke-linecap:butt;stroke-linejoin:miter;stroke:rgb(100%,0%,0%);stroke-opacity:1;stroke-miterlimit:10;" d="M 97.785156 166.265625 L 102.472656 158.066406 "/>
<path style="fill:none;stroke-width:1.2;stroke-linecap:butt;stroke-linejoin:miter;stroke:rgb(0%,0%,0%);stroke-opacity:1;stroke-miterlimit:10;" d="M 95.027344 175.570312 L 85.585938 175.613281 "/>
<path style="fill:none;stroke-width:1.2;stroke-linecap:butt;stroke-linejoin:miter;stroke:rgb(0%,0%,100%);stroke-opacity:1;stroke-miterlimit:10;" d="M 85.585938 175.613281 L 76.140625 175.652344 "/>
<path style=" stroke:none;fill-rule:nonzero;fill:rgb(100%,100%,100%);fill-opacity:1;" d="M 100.402344 153.671875 L 108.402344 153.671875 L 108.402344 164.671875 L 100.402344 164.671875 Z M 100.402344 153.671875 "/>
<g style="fill:rgb(100%,0%,0%);fill-opacity:1;">
  <use xlink:href="#glyph0-1" x="100.402344" y="162.334961"/>
</g>
<path style="fill:none;stroke-width:1.2;stroke-linecap:butt;stroke-linejoin:miter;stroke:rgb(0%,0%,100%);stroke-opacity:1;stroke-miterlimit:10;" d="M 76.140625 175.652344 L 71.382812 167.492188 "/>
<path style="fill:none;stroke-width:1.2;stroke-linecap:butt;stroke-linejoin:miter;stroke:rgb(0%,0%,0%);stroke-opacity:1;stroke-miterlimit:10;" d="M 71.382812 167.492188 L 66.625 159.335938 "/>
<path style=" stroke:none;fill-rule:nonzero;fill:rgb(100%,100%,100%);fill-opacity:1;" d="M 69.140625 170.152344 L 83.140625 170.152344 L 83.140625 181.152344 L 69.140625 181.152344 Z M 69.140625 170.152344 "/>
<g style="fill:rgb(0%,0%,100%);fill-opacity:1;">
  <use xlink:href="#glyph0-2" x="69.140625" y="178.81543"/>
  <use xlink:href="#glyph0-3" x="76.118164" y="178.81543"/>
</g>
<path style="fill:none;stroke-width:1.2;stroke-linecap:butt;stroke-linejoin:miter;stroke:rgb(0%,0%,0%);stroke-opacity:1;stroke-miterlimit:10;" d="M 66.625 159.335938 L 57.226562 158.390625 "/>
<path style="fill:none;stroke-width:1.2;stroke-linecap:butt;stroke-linejoin:miter;stroke:rgb(0%,0%,100%);stroke-opacity:1;stroke-miterlimit:10;" d="M 57.226562 158.390625 L 47.828125 157.441406 "/>
<path style="fill:none;stroke-width:1.2;stroke-linecap:butt;stroke-linejoin:miter;stroke:rgb(0%,0%,0%);stroke-opacity:1;stroke-miterlimit:10;" d="M 74.230469 142.046875 L 66.625 159.335938 "/>
<path style="fill:none;stroke-width:1.2;stroke-linecap:butt;stroke-linejoin:miter;stroke:rgb(0%,0%,0%);stroke-opacity:1;stroke-miterlimit:10;" d="M 69.402344 141.984375 L 63.316406 155.816406 "/>
<path style="fill:none;stroke-width:1.2;stroke-linecap:butt;stroke-linejoin:miter;stroke:rgb(0%,0%,100%);stroke-opacity:1;stroke-miterlimit:10;" d="M 47.828125 157.441406 L 43.820312 138.984375 "/>
<path style="fill:none;stroke-width:1.2;stroke-linecap:butt;stroke-linejoin:miter;stroke:rgb(0%,0%,100%);stroke-opacity:1;stroke-miterlimit:10;" d="M 47.828125 157.441406 L 41.539062 164.488281 "/>
<path style="fill:none;stroke-width:1.2;stroke-linecap:butt;stroke-linejoin:miter;stroke:rgb(0%,0%,0%);stroke-opacity:1;stroke-miterlimit:10;" d="M 41.539062 164.488281 L 35.25 171.535156 "/>
<path style=" stroke:none;fill-rule:nonzero;fill:rgb(100%,100%,100%);fill-opacity:1;" d="M 44.828125 151.941406 L 51.828125 151.941406 L 51.828125 162.941406 L 44.828125 162.941406 Z M 44.828125 151.941406 "/>
<g style="fill:rgb(0%,0%,100%);fill-opacity:1;">
  <use xlink:href="#glyph0-2" x="44.828125" y="160.604492"/>
</g>
<path style="fill:none;stroke-width:1.2;stroke-linecap:butt;stroke-linejoin:miter;stroke:rgb(0%,0%,100%);stroke-opacity:1;stroke-miterlimit:10;" d="M 43.820312 138.984375 L 51.980469 134.226562 "/>
<path style="fill:none;stroke-width:1.2;stroke-linecap:butt;stroke-linejoin:miter;stroke:rgb(0%,0%,0%);stroke-opacity:1;stroke-miterlimit:10;" d="M 51.980469 134.226562 L 60.136719 129.464844 "/>
<path style="fill:none;stroke-width:1.2;stroke-linecap:butt;stroke-linejoin:miter;stroke:rgb(0%,0%,100%);stroke-opacity:1;stroke-miterlimit:10;" d="M 47.691406 141.871094 L 54.21875 138.0625 "/>
<path style="fill:none;stroke-width:1.2;stroke-linecap:butt;stroke-linejoin:miter;stroke:rgb(0%,0%,0%);stroke-opacity:1;stroke-miterlimit:10;" d="M 54.21875 138.0625 L 60.746094 134.257812 "/>
<path style=" stroke:none;fill-rule:nonzero;fill:rgb(100%,100%,100%);fill-opacity:1;" d="M 40.820312 133.484375 L 47.820312 133.484375 L 47.820312 144.484375 L 40.820312 144.484375 Z M 40.820312 133.484375 "/>
<g style="fill:rgb(0%,0%,100%);fill-opacity:1;">
  <use xlink:href="#glyph0-2" x="40.820312" y="142.147461"/>
</g>
<path style="fill:none;stroke-width:1.2;stroke-linecap:butt;stroke-linejoin:miter;stroke:rgb(0%,0%,0%);stroke-opacity:1;stroke-miterlimit:10;" d="M 60.136719 129.464844 L 74.230469 142.046875 "/>
<path style="fill:none;stroke-width:1.2;stroke-linecap:butt;stroke-linejoin:miter;stroke:rgb(0%,0%,0%);stroke-opacity:1;stroke-miterlimit:10;" d="M 60.136719 129.464844 L 62.03125 110.671875 "/>
<path style="fill:none;stroke-width:1.2;stroke-linecap:butt;stroke-linejoin:miter;stroke:rgb(0%,0%,0%);stroke-opacity:1;stroke-miterlimit:10;" d="M 62.03125 110.671875 L 80.824219 112.5625 "/>
<path style="fill:none;stroke-width:1.2;stroke-linecap:butt;stroke-linejoin:miter;stroke:rgb(0%,0%,0%);stroke-opacity:1;stroke-miterlimit:10;" d="M 62.03125 110.671875 L 43.234375 108.78125 "/>
<path style="fill:none;stroke-width:1.2;stroke-linecap:butt;stroke-linejoin:miter;stroke:rgb(0%,0%,0%);stroke-opacity:1;stroke-miterlimit:10;" d="M 62.03125 110.671875 L 63.921875 91.878906 "/>
<path style="fill:none;stroke-width:1.2;stroke-linecap:butt;stroke-linejoin:miter;stroke:rgb(0%,0%,0%);stroke-opacity:1;stroke-miterlimit:10;" d="M 132.953125 208.121094 L 151.839844 208.039062 "/>
<path style="fill:none;stroke-width:1.2;stroke-linecap:butt;stroke-linejoin:miter;stroke:rgb(0%,0%,0%);stroke-opacity:1;stroke-miterlimit:10;" d="M 134.820312 203.671875 L 149.933594 203.605469 "/>
</g>
</svg>

<svg xmlns="http://www.w3.org/2000/svg" xmlns:xlink="http://www.w3.org/1999/xlink" width="300pt" height="300pt" viewBox="0 0 300 300"><defs><symbol overflow="visible"><path d="M.453 1.594v-7.938h4.5v7.938zm.5-.5h3.5v-6.938h-3.5zm0 0"/></symbol><symbol overflow="visible" id="a"><path d="M3.547-5.953c-.65 0-1.164.242-1.547.72-.375.48-.563 1.13-.563 1.952 0 .835.188 1.49.563 1.967.383.48.898.72 1.547.72.644 0 1.156-.24 1.53-.72.376-.476.564-1.132.564-1.968 0-.822-.187-1.474-.562-1.954-.375-.477-.887-.72-1.53-.72zm0-.734c.914 0 1.648.312 2.203.937.55.617.828 1.438.828 2.47 0 1.042-.277 1.87-.828 2.483-.555.617-1.29.922-2.203.922-.93 0-1.668-.305-2.22-.922C.774-1.41.5-2.237.5-3.28c0-1.033.273-1.853.828-2.47.55-.625 1.29-.938 2.22-.938zm0 0"/></symbol><symbol overflow="visible" id="b"><path d="M.89-6.563H2.08l2.906 5.485v-5.484h.86V0H4.656L1.75-5.484V0H.89zm0 0"/></symbol><symbol overflow="visible" id="c"><path d="M.89-6.563h.876v2.688H5v-2.688h.89V0H5v-3.125H1.766V0H.89zm0 0"/></symbol></defs><g><path fill="#fff" d="M0 0h300v300H0z"/><path d="M180.105 191.56l4.684-8.2" stroke-width="1.2" stroke="#f00" stroke-miterlimit="10" fill="none"/><path d="M184.79 183.36l4.687-8.204" stroke-width="1.2" stroke="#000" stroke-miterlimit="10" fill="none"/><path d="M180.105 191.56l-9.445.038" stroke-width="1.2" stroke="#f00" stroke-miterlimit="10" fill="none"/><path d="M170.66 191.598l-9.445.043" stroke-width="1.2" stroke="#000" stroke-miterlimit="10" fill="none"/><path d="M176.105 186.06h8v11h-8zm0 0" fill="#fff"/><use xlink:href="#a" x="176.105" y="194.722" fill="#f00"/><path d="M189.477 175.156l18.89-.082M191.348 170.703l15.11-.062M179.96 158.84l9.517 16.316M208.367 175.074l9.375-16.398M217.742 158.676l-9.52-16.32M212.95 159.28l-7.614-13.053M208.223 142.355l4.687-8.2" stroke-width="1.2" stroke="#000" stroke-miterlimit="10" fill="none"/><path d="M212.91 134.156l4.688-8.2" stroke-width="1.2" stroke="#00f" stroke-miterlimit="10" fill="none"/><path d="M208.223 142.355l-18.887.086" stroke-width="1.2" stroke="#000" stroke-miterlimit="10" fill="none"/><path d="M217.598 125.957l9.445-.043" stroke-width="1.2" stroke="#00f" stroke-miterlimit="10" fill="none"/><path d="M227.043 125.914l9.445-.04" stroke-width="1.2" stroke="#000" stroke-miterlimit="10" fill="none"/><path d="M210.598 120.457h14v11h-14zm0 0" fill="#fff"/><g fill="#00f"><use xlink:href="#b" x="210.598" y="129.12"/><use xlink:href="#c" x="217.575" y="129.12"/></g><path d="M234.566 126.992l4.758 8.16" stroke-width="1.2" stroke="#000" stroke-miterlimit="10" fill="none"/><path d="M239.324 135.152l4.758 8.16" stroke-width="1.2" stroke="#f00" stroke-miterlimit="10" fill="none"/><path d="M238.406 124.754l4.758 8.16" stroke-width="1.2" stroke="#000" stroke-miterlimit="10" fill="none"/><path d="M243.164 132.914l4.758 8.16" stroke-width="1.2" stroke="#f00" stroke-miterlimit="10" fill="none"/><path d="M236.488 125.875l9.37-16.402" stroke-width="1.2" stroke="#000" stroke-miterlimit="10" fill="none"/><path d="M242.004 136.69h8v11h-8zm0 0" fill="#fff"/><use xlink:href="#a" x="242.004" y="145.354" fill="#f00"/><path d="M245.86 109.473l18.89-.082M189.336 142.44l-9.375 16.4M192.258 146.285l-7.5 13.12M161.215 191.64l-9.516-16.316M156.422 192.246l-7.613-13.05M151.84 208.04l9.375-16.4M151.7 175.324l-18.89.082M132.81 175.406l-9.376 16.4M135.73 179.25l-7.5 13.12M123.434 191.805l-9.446.043" stroke-width="1.2" stroke="#000" stroke-miterlimit="10" fill="none"/><path d="M113.988 191.848l-9.44.04" stroke-width="1.2" stroke="#00f" stroke-miterlimit="10" fill="none"/><path d="M123.434 191.805l9.52 16.316" stroke-width="1.2" stroke="#000" stroke-miterlimit="10" fill="none"/><path d="M104.547 191.887l-4.758-8.157" stroke-width="1.2" stroke="#00f" stroke-miterlimit="10" fill="none"/><path d="M99.79 183.73l-4.763-8.16" stroke-width="1.2" stroke="#000" stroke-miterlimit="10" fill="none"/><path d="M97.547 186.387h14v11h-14zm0 0" fill="#fff"/><g fill="#00f"><use xlink:href="#b" x="97.547" y="195.05"/><use xlink:href="#c" x="104.524" y="195.05"/></g><path d="M96.957 176.672l4.688-8.2" stroke-width="1.2" stroke="#000" stroke-miterlimit="10" fill="none"/><path d="M101.645 168.473l4.687-8.2" stroke-width="1.2" stroke="#f00" stroke-miterlimit="10" fill="none"/><path d="M93.102 174.47l4.683-8.204" stroke-width="1.2" stroke="#000" stroke-miterlimit="10" fill="none"/><path d="M97.785 166.266l4.688-8.2" stroke-width="1.2" stroke="#f00" stroke-miterlimit="10" fill="none"/><path d="M95.027 175.57l-9.44.043" stroke-width="1.2" stroke="#000" stroke-miterlimit="10" fill="none"/><path d="M85.586 175.613l-9.445.04" stroke-width="1.2" stroke="#00f" stroke-miterlimit="10" fill="none"/><path d="M100.402 153.672h8v11h-8zm0 0" fill="#fff"/><use xlink:href="#a" x="100.402" y="162.335" fill="#f00"/><path d="M76.14 175.652l-4.757-8.16" stroke-width="1.2" stroke="#00f" stroke-miterlimit="10" fill="none"/><path d="M71.383 167.492l-4.758-8.156" stroke-width="1.2" stroke="#000" stroke-miterlimit="10" fill="none"/><path d="M69.14 170.152h14v11h-14zm0 0" fill="#fff"/><g fill="#00f"><use xlink:href="#b" x="69.141" y="178.815"/><use xlink:href="#c" x="76.118" y="178.815"/></g><path d="M66.625 159.336l-9.398-.945" stroke-width="1.2" stroke="#000" stroke-miterlimit="10" fill="none"/><path d="M57.227 158.39l-9.4-.95" stroke-width="1.2" stroke="#00f" stroke-miterlimit="10" fill="none"/><path d="M74.23 142.047l-7.605 17.29M69.402 141.984l-6.086 13.832" stroke-width="1.2" stroke="#000" stroke-miterlimit="10" fill="none"/><path d="M47.828 157.44l-4.008-18.456M47.828 157.44l-6.29 7.048" stroke-width="1.2" stroke="#00f" stroke-miterlimit="10" fill="none"/><path d="M41.54 164.488l-6.29 7.047" stroke-width="1.2" stroke="#000" stroke-miterlimit="10" fill="none"/><path d="M44.828 151.94h7v11h-7zm0 0" fill="#fff"/><use xlink:href="#b" x="44.828" y="160.604" fill="#00f"/><path d="M43.82 138.984l8.16-4.757" stroke-width="1.2" stroke="#00f" stroke-miterlimit="10" fill="none"/><path d="M51.98 134.227l8.157-4.762" stroke-width="1.2" stroke="#000" stroke-miterlimit="10" fill="none"/><path d="M47.69 141.87l6.53-3.808" stroke-width="1.2" stroke="#00f" stroke-miterlimit="10" fill="none"/><path d="M54.22 138.063l6.526-3.805" stroke-width="1.2" stroke="#000" stroke-miterlimit="10" fill="none"/><path d="M40.82 133.484h7v11h-7zm0 0" fill="#fff"/><use xlink:href="#b" x="40.82" y="142.147" fill="#00f"/><path d="M60.137 129.465l14.093 12.582M60.137 129.465l1.894-18.793M62.03 110.672l18.794 1.89M62.03 110.672l-18.796-1.89M62.03 110.672l1.892-18.793M132.953 208.12l18.887-.08M134.82 203.672l15.114-.067" stroke-width="1.2" stroke="#000" stroke-miterlimit="10" fill="none"/></g></svg>
